dist/svg/user-warning.svg

<svg width="16" height="16" viewBox="0 0 16 16" fill="rgb(34, 34, 34)" xmlns="http://www.w3.org/2000/svg"><title>user-warning</title><path d="M5.01132 11C5.01132 8 7.20905 5.5 10.1061 5.1C10.3059 4.6 10.5057 4.1 10.5057 3.5C10.5057 1.6 8.90731 0 7.00926 0C5.11122 0 3.51286 1.6 3.51286 3.5C3.51286 4.9 4.31204 6.1 5.5108 6.7V7.2H5.41091C4.01235 7.6 2.81358 8.3 1.81461 9.3C0.615845 10.5 -1.78168 14 2.2142 14H5.8105C5.31101 13.1 5.01132 12.1 5.01132 11ZM11.0051 6C8.20803 6 6.01029 8.2 6.01029 11C6.01029 13.8 8.20803 16 11.0051 16C13.8023 16 16 13.8 16 11C16 8.2 13.8023 6 11.0051 6ZM12.0041 14H10.0062V13H12.0041V14ZM12.0041 12H10.0062V8H12.0041V12Z" fill="rgb(34, 34, 34)" fill-opacity="1.00"/></svg>

<!-- Generated by Trend Micro Style Portal -->
<svg version="1.1" xmlns="http://www.w3.org/2000/svg" width="16" height="16" viewBox="0 0 16 16">
  <title>user-warning</title>
  <path fill="rgb(34,34,34)" d="M5 11c0-3 2.2-5.5 5.1-5.9 0.2-0.5 0.4-1 0.4-1.6 0-1.9-1.6-3.5-3.5-3.5s-3.5 1.6-3.5 3.5c0 1.4 0.8 2.6 2 3.2v0.5h-0.1c-1.4 0.4-2.6 1.1-3.6 2.1-1.2 1.2-3.6 4.7 0.4 4.7h3.6c-0.5-0.9-0.8-1.9-0.8-3zM11 6c-2.8 0-5 2.2-5 5s2.2 5 5 5 5-2.2 5-5-2.2-5-5-5zM12 14h-2v-1h2v1zM12 12h-2v-4h2v4z"></path>
</svg>
